X:1
T:Title
%%score { ( 1 3 ) | ( 2 4 ) }
L:1/8
Q:1/4=100
M:4/4
K:C
V:1 treble nm="Grand Piano"
V:3 treble 
V:2 treble 
V:4 treble 
V:1
 c2 c>c cGEG | [Ec]2 [Fc]2 [Ec]2 z2 | e2 e>e ed[Gc][Ge] | [Gd]2 [^Fd]2 d2 ed | %4
w: R.~E.~Winsett * * * * * *||||
 [Ec]2 [Ec]>[Ec] dccA | [EG]2 [CE]2 [EG]2 G2 | A2 d>d c2 [DB]>[DB] |[M:3/4] [Ec]6 |[M:1/4] [EG]2 | %9
w: |||||
[M:4/4] [Ec]6 z2 | [EG]6 z2 | [DB]6 z2 |[M:9/8] G6- G z z |[M:4/4] [Ge]6 z2 | [Ec]6 z2 | %15
w: ||||||
 [CFA]2 [FAd]>[FAd] [EGc]2 [DFB]>[DFB] |[M:3/4] [CEc]6 |] %17
w: ||
V:2
 C2 C>C CG,[K:bass]E,G, | [C,G,]2 [C,A,]2 [C,G,]2 z2 | %2
 [CG]2 [CG]>[CG] [CG][G,B,G][K:bass][E,C][C,C] | [D,B,]2 [D,A,]2[K:treble] [G,B,G]2 [G,CG][G,B,F] | %4
 [C,C]2 [C,G,]>[C,G,] [F,A,F][F,A,F][F,A,F][F,CF] | [C,C]2 [C,G,]2 [C,C]2 [E,C]2 | %6
 [F,CF]2 [F,A,F]>[F,A,F] [G,E]2 [G,,G,]>[G,,G,] |[M:3/4] [C,G,]6 |[M:1/4] z2 | %9
[M:4/4] [C,G,]2 C,>C, C,2 C>D | C,2 C,>C, C,2 [C,G,]2 | [D,G,]D,D,D, D,[D,B,][D,C][D,D] | %12
[M:9/8] z2 B, C D2- D E2 |[M:4/4] [C,C]2 C,>C, C,2[K:treble] G>F | A,2 A,>A,[K:bass] A,2 E,>E, | %15
 F,2 D,>D, G,2 G,>G, |[M:3/4] C,6 |] %17
V:3
 x8 | x8 | x8 | x8 | x8 | x8 | x8 |[M:3/4] x6 |[M:1/4] x2 |[M:4/4] z2 G,>G, G,2 E>F | %10
 C2 C>C C2 [Ec]2 | z G,G,G, G,[Gd][^FA][FB] |[M:9/8] B,2 D E F2- F G2 |[M:4/4] z2 C>C C2 e>d | %14
 C2 C>C C2 [CG]>[CG] | x8 |[M:3/4] x6 |] %17
V:4
 x6[K:bass] x2 | x8 | x6[K:bass] x2 | x4[K:treble] x4 | x8 | x8 | x8 |[M:3/4] x6 |[M:1/4] x2 | %9
[M:4/4] x8 | x8 | x8 |[M:9/8] [G,,G,]6- [G,,G,] z z |[M:4/4] x6[K:treble] x2 | x4[K:bass] x4 | x8 | %16
[M:3/4] x6 |] %17

